X: 17985
T: Hugh Smith's Farewell
R: reel
M: 4/4
K: Adorian
E|A3 B c2 BA|GEEA GEEF|GFGA B3 A|G2 BG dGBG|
A3 B c2 cd|edcB AGEF|GFGA Bdge|dBGB A3:|
e|a^gab a=ged|eaag eaa2|gfga gedB|G2 BG ABde|
a^gab a=ged|eaag eaab|g3 f efge|dBGB A3:|

